remix/System/menu-add-fill.svg

<svg viewBox="0 0 24 24" xmlns="http://www.w3.org/2000/svg"><path fill="none" d="M0 0h24v24H0Z"/><path d="M18 15l-.01 3h3v2h-3.01l0 3h-2l-.01-3h-3v-2h2.99l0-3h2Zm-7 3v2H3v-2h8Zm10-7v2H3v-2h18Zm0-7v2H3V4h18Z"/></svg>

<svg viewBox="0 0 24 24" fill="currentColor" xmlns="http://www.w3.org/2000/svg"><path d="M18 15L17.999 18H21V20H17.999L18 23H16L15.999 20H13V18H15.999L16 15H18ZM11 18V20H3V18H11ZM21 11V13H3V11H21ZM21 4V6H3V4H21Z"/></svg>
